X: 31949
T: Pearl Of The White Breast, The
R: barndance
M: 4/4
K: Fmajor
|:(cd/2e/2)|f>e (dc) f3 d|(cA)(GF) G2 (AB)|c2 (AF) (BA) G>F|F6:|
(cB)|Acdf e3 c|(fe) (d>c) c3 c|defa gfed|c6|
(cd/2e/2)|f>e (dc) f3 d|(cA)(GF) G2 (AB)|c2 (AF) (BA) G>F|F6||

